X: 8606
T: Cronin's
R: slide
M: 12/8
K: Amajor
|:EFE ABc e2e faf|e2c cBA B2A F2A|
EFE ABc e2e faf|e2c BcB A3 A3:|
|:faf f2e cec c2B|ABA B2c B2A F2A|
[1 faf f2e cec c2B|ABc e2c B3 Bce:|
[2 EFE ABc e2e faf|e2c BcB A3 A3||

